X: 1
T:As Minjat
C:Trad 2, 34
M:2/4
L:1/16
K:G
DGBd g2f2|DFAc e2d2|\
DGBd DGBd|1 dBcA B2G2:|2 dBcA G4||
|:DGBd dBdB|cAFA B2G2|DGBd dBdB|cAFA G4:|
